img/other.svg

<?xml version="1.0" encoding="UTF-8" standalone="no"?>
<svg
   xmlns:dc="http://purl.org/dc/elements/1.1/"
   xmlns:cc="http://creativecommons.org/ns#"
   xmlns:rdf="http://www.w3.org/1999/02/22-rdf-syntax-ns#"
   xmlns:svg="http://www.w3.org/2000/svg"
   xmlns="http://www.w3.org/2000/svg"
   xmlns:sodipodi="http://sodipodi.sourceforge.net/DTD/sodipodi-0.dtd"
   xmlns:inkscape="http://www.inkscape.org/namespaces/inkscape"
   height="100px"
   width="100px"
   fill="#000000"
   viewBox="0 0 65 65"
   version="1.1"
   xml:space="preserve"
   style=""
   x="0px"
   y="0px"
   fill-rule="evenodd"
   clip-rule="evenodd"
   stroke-linejoin="round"
   stroke-miterlimit="2"
   id="svg885"
   sodipodi:docname="other.svg"
   inkscape:version="1.0.2-2 (e86c870879, 2021-01-15)"><metadata
     id="metadata891"><rdf:RDF><cc:Work
         rdf:about=""><dc:format>image/svg+xml</dc:format><dc:type
           rdf:resource="http://purl.org/dc/dcmitype/StillImage" /></cc:Work></rdf:RDF></metadata><defs
     id="defs889" /><sodipodi:namedview
     pagecolor="#ffffff"
     bordercolor="#666666"
     borderopacity="1"
     objecttolerance="10"
     gridtolerance="10"
     guidetolerance="10"
     inkscape:pageopacity="0"
     inkscape:pageshadow="2"
     inkscape:window-width="1920"
     inkscape:window-height="986"
     id="namedview887"
     showgrid="false"
     inkscape:zoom="2"
     inkscape:cx="37.59071"
     inkscape:cy="81.085353"
     inkscape:window-x="-11"
     inkscape:window-y="-11"
     inkscape:window-maximized="1"
     inkscape:current-layer="svg885" /><rect
     x="0.391"
     y="0.53500003"
     width="64"
     height="64"
     fill="none"
     id="rect863" /><g
     transform="matrix(0.743353,0,0,0.743353,-90.6261,-118.093)"
     id="g867"
     style="fill:#004653;fill-opacity:1"><path
       d="m 165.49,189.574 c -7.209,0 -13.061,5.852 -13.061,13.06 0,7.208 5.852,13.06 13.061,13.06 7.208,0 13.06,-5.852 13.06,-13.06 0,-7.208 -5.852,-13.06 -13.06,-13.06 z m 0,3.923 c 5.042,0 9.136,4.094 9.136,9.137 0,5.042 -4.094,9.136 -9.136,9.136 -5.043,0 -9.137,-4.094 -9.137,-9.136 0,-5.043 4.094,-9.137 9.137,-9.137 z"
       id="path865"
       style="fill:#004653;fill-opacity:1" /></g><g
     transform="matrix(0.743353,0,0,0.743353,-112.376,-118.093)"
     id="g871"
     style="fill:#004653;fill-opacity:1"><path
       d="m 173.559,198.348 c 0.682,1.278 1.067,2.737 1.067,4.286 0,5.042 -4.094,9.136 -9.136,9.136 -5.043,0 -9.137,-4.094 -9.137,-9.136 0,-5.043 4.094,-9.137 9.137,-9.137 2.072,0 3.984,0.691 5.517,1.856 0.862,0.655 2.094,0.487 2.749,-0.376 0.655,-0.862 0.487,-2.094 -0.376,-2.748 -2.193,-1.666 -4.927,-2.655 -7.89,-2.655 -7.209,0 -13.061,5.852 -13.061,13.06 0,7.208 5.852,13.06 13.061,13.06 7.208,0 13.06,-5.852 13.06,-13.06 0,-2.216 -0.554,-4.303 -1.528,-6.132 -0.51,-0.955 -1.699,-1.318 -2.654,-0.808 -0.956,0.509 -1.318,1.698 -0.809,2.654 z"
       id="path869"
       style="fill:#004653;fill-opacity:1" /></g><g
     transform="matrix(0.743353,0,0,0.743353,-68.8761,-118.093)"
     id="g875"
     style="fill:#004653;fill-opacity:1"><path
       d="m 156.741,205.275 c -0.253,-0.836 -0.388,-1.723 -0.388,-2.641 0,-5.043 4.094,-9.137 9.137,-9.137 5.042,0 9.136,4.094 9.136,9.137 0,5.042 -4.094,9.136 -9.136,9.136 -1.083,0 -1.962,0.879 -1.962,1.962 0,1.083 0.879,1.962 1.962,1.962 7.208,0 13.06,-5.852 13.06,-13.06 0,-7.208 -5.852,-13.06 -13.06,-13.06 -7.209,0 -13.061,5.852 -13.061,13.06 0,1.312 0.195,2.58 0.556,3.775 0.313,1.037 1.408,1.624 2.445,1.311 1.036,-0.313 1.624,-1.408 1.311,-2.445 z"
       id="path873"
       style="fill:#004653;fill-opacity:1" /></g><g
     transform="matrix(0.743353,0,0,0.743353,-68.8761,-118.093)"
     id="g879"
     style="fill:#004653;fill-opacity:1"><path
       d="m 160.34,210.18 c -0.523,-0.358 -1.006,-0.768 -1.443,-1.224 -0.75,-0.781 -1.993,-0.807 -2.774,-0.057 -0.781,0.749 -0.807,1.992 -0.057,2.774 0.623,0.649 1.312,1.234 2.057,1.744 0.894,0.612 2.116,0.383 2.728,-0.51 0.611,-0.894 0.382,-2.116 -0.511,-2.727 z"
       id="path877"
       style="fill:#004653;fill-opacity:1" /></g></svg>

<svg height='100px' width='100px'  fill="#000000" xmlns="http://www.w3.org/2000/svg" xmlns:xlink="http://www.w3.org/1999/xlink" xmlns:serif="http://www.serif.com/" viewBox="0 0 65 65" version="1.1" xml:space="preserve" style="" x="0px" y="0px" fill-rule="evenodd" clip-rule="evenodd" stroke-linejoin="round" stroke-miterlimit="2"><g transform="matrix(1,0,0,1,-152,-189)"><g transform="matrix(1,0,0,1,152.391,189.535)"><rect x="0" y="0" width="64" height="64" style="" fill="none"></rect><g transform="matrix(0.743353,0,0,0.743353,-91.0171,-118.628)"><path d="M165.49,189.574C158.281,189.574 152.429,195.426 152.429,202.634C152.429,209.842 158.281,215.694 165.49,215.694C172.698,215.694 178.55,209.842 178.55,202.634C178.55,195.426 172.698,189.574 165.49,189.574ZM165.49,193.497C170.532,193.497 174.626,197.591 174.626,202.634C174.626,207.676 170.532,211.77 165.49,211.77C160.447,211.77 156.353,207.676 156.353,202.634C156.353,197.591 160.447,193.497 165.49,193.497Z"></path></g><g transform="matrix(0.743353,0,0,0.743353,-112.767,-118.628)"><path d="M173.559,198.348C174.241,199.626 174.626,201.085 174.626,202.634C174.626,207.676 170.532,211.77 165.49,211.77C160.447,211.77 156.353,207.676 156.353,202.634C156.353,197.591 160.447,193.497 165.49,193.497C167.562,193.497 169.474,194.188 171.007,195.353C171.869,196.008 173.101,195.84 173.756,194.977C174.411,194.115 174.243,192.883 173.38,192.229C171.187,190.563 168.453,189.574 165.49,189.574C158.281,189.574 152.429,195.426 152.429,202.634C152.429,209.842 158.281,215.694 165.49,215.694C172.698,215.694 178.55,209.842 178.55,202.634C178.55,200.418 177.996,198.331 177.022,196.502C176.512,195.547 175.323,195.184 174.368,195.694C173.412,196.203 173.05,197.392 173.559,198.348Z"></path></g><g transform="matrix(0.743353,0,0,0.743353,-69.2671,-118.628)"><path d="M156.741,205.275C156.488,204.439 156.353,203.552 156.353,202.634C156.353,197.591 160.447,193.497 165.49,193.497C170.532,193.497 174.626,197.591 174.626,202.634C174.626,207.676 170.532,211.77 165.49,211.77C164.407,211.77 163.528,212.649 163.528,213.732C163.528,214.815 164.407,215.694 165.49,215.694C172.698,215.694 178.55,209.842 178.55,202.634C178.55,195.426 172.698,189.574 165.49,189.574C158.281,189.574 152.429,195.426 152.429,202.634C152.429,203.946 152.624,205.214 152.985,206.409C153.298,207.446 154.393,208.033 155.43,207.72C156.466,207.407 157.054,206.312 156.741,205.275Z"></path></g><g transform="matrix(0.743353,0,0,0.743353,-69.2671,-118.628)"><path d="M160.34,210.18C159.817,209.822 159.334,209.412 158.897,208.956C158.147,208.175 156.904,208.149 156.123,208.899C155.342,209.648 155.316,210.891 156.066,211.673C156.689,212.322 157.378,212.907 158.123,213.417C159.017,214.029 160.239,213.8 160.851,212.907C161.462,212.013 161.233,210.791 160.34,210.18Z"></path></g></g></g></svg>
